dist/icons/svgs/trash-can-solid.svg

<svg xmlns="http://www.w3.org/2000/svg" width="24" height="24" fill="currentcolor" class="icon-trash-can-solid" viewBox="0 0 24 24">
  <path d="M8.52344 2.70312C8.71875 2.27344 9.14844 2 9.61719 2H14.3438C14.8125 2 15.2422 2.27344 15.4375 2.70312L15.75 3.25H19.5C20.1641 3.25 20.75 3.83594 20.75 4.5C20.75 5.20312 20.1641 5.75 19.5 5.75H4.5C3.79688 5.75 3.25 5.20312 3.25 4.5C3.25 3.83594 3.79688 3.25 4.5 3.25H8.25L8.52344 2.70312ZM4.5 7H19.5V19.5C19.5 20.9062 18.3672 22 17 22H7C5.59375 22 4.5 20.9062 4.5 19.5V7ZM8.25 9.5C7.89844 9.5 7.625 9.8125 7.625 10.125V18.875C7.625 19.2266 7.89844 19.5 8.25 19.5C8.5625 19.5 8.875 19.2266 8.875 18.875V10.125C8.875 9.8125 8.5625 9.5 8.25 9.5ZM12 9.5C11.6484 9.5 11.375 9.8125 11.375 10.125V18.875C11.375 19.2266 11.6484 19.5 12 19.5C12.3125 19.5 12.625 19.2266 12.625 18.875V10.125C12.625 9.8125 12.3125 9.5 12 9.5ZM15.75 9.5C15.3984 9.5 15.125 9.8125 15.125 10.125V18.875C15.125 19.2266 15.3984 19.5 15.75 19.5C16.0625 19.5 16.375 19.2266 16.375 18.875V10.125C16.375 9.8125 16.0625 9.5 15.75 9.5Z"/>
</svg>

<svg xmlns="http://www.w3.org/2000/svg" width="24" height="24" fill="currentColor" class="icon-trash-can-solid" viewBox="0 0 24 24">
  <path d="M8.523 2.703C8.72 2.273 9.148 2 9.617 2h4.727c.469 0 .898.273 1.094.703l.312.547h3.75c.664 0 1.25.586 1.25 1.25 0 .703-.586 1.25-1.25 1.25h-15c-.703 0-1.25-.547-1.25-1.25 0-.664.547-1.25 1.25-1.25h3.75zM4.5 7h15v12.5c0 1.406-1.133 2.5-2.5 2.5H7a2.47 2.47 0 0 1-2.5-2.5zm3.75 2.5a.64.64 0 0 0-.625.625v8.75c0 .352.273.625.625.625a.64.64 0 0 0 .625-.625v-8.75c0-.312-.312-.625-.625-.625m3.75 0a.64.64 0 0 0-.625.625v8.75c0 .352.273.625.625.625a.64.64 0 0 0 .625-.625v-8.75c0-.312-.312-.625-.625-.625m3.75 0a.64.64 0 0 0-.625.625v8.75c0 .352.273.625.625.625a.64.64 0 0 0 .625-.625v-8.75c0-.312-.312-.625-.625-.625"/>
</svg>
